public/img/body.svg

<svg fill="none" height="851" viewBox="0 0 1074 851" width="1074" xmlns="http://www.w3.org/2000/svg"><path d="m326.957 68.3061c-88.086 4.5177-276.6405-18.7485-326.174773-147.955l1104.097773 65.0201c34.39 2.0249 61 30.9008 60.22 65.3367l-16.69 737.7391c-.78 34.774-29.12 62.553-63.9 62.553h-227.01c-228 0-307.196-107.5-307.196-252.992-18.797 80.189-64.13 125.366-166.958 109.554 97.579-35.82 89.851-137.246 37.041-226.254-66.894-112.744 22.666-184.038 22.666-184.038-92.877 18.238-245.952-18.536-283.053-107.77 70.21 0 140.973-17.686 166.957-121.1939z" fill="#212529"/></svg>

<svg width="1074" height="851" viewBox="0 0 1074 851" fill="none" xmlns="http://www.w3.org/2000/svg">
<path d="M326.957 68.3061C238.871 72.8238 50.3165 49.5576 0.782227 -79.6489L1104.88 -14.6288C1139.27 -12.6039 1165.88 16.272 1165.1 50.7079L1148.41 788.447C1147.63 823.221 1119.29 851 1084.51 851H857.5C629.5 851 550.304 743.5 550.304 598.008C531.507 678.197 486.174 723.374 383.346 707.562C480.925 671.742 473.197 570.316 420.387 481.308C353.493 368.564 443.053 297.27 443.053 297.27C350.176 315.508 197.101 278.734 160 189.5C230.21 189.5 300.973 171.814 326.957 68.3061Z" fill="#212529"/>
</svg>
